X:200
T: Brautlied
N: A0239
O: Europa, Mitteleuropa, Deutschland
N: Beuttner 1602 II No. 89.
R: Romanze, Ballade, Lied
M: 4/2
L: 1/4
K: G
G2 | _B2B2c2d2 | c2_B2A2
e2 | =f2g2f2e2 | d2^c2d4z2
d2 | g2=f2e2d2 | =f2e2d2
d2 | d3dd2_B2 | G3A_B2
B2 | A2G2G2G2 | F2G4

